X:1619
L:1/8
Q:1/8=140
M:2/2
K:G
 Bc | d^cde d=cBA | GFGA BGDB, | CEAc B,DGB | (3ABA (3GFE D2 Bc | d^cde d=cBA | GFGA BGDB, | 
 CEAc BAGF | G2 B2 G2 :| FG | Ad^cd fdcd | Be^de gede | BgAf GeFd | Ee^de =d2 FG | Ad^cd fdcd | 
 Be^de gede | BgAf GeFc | dcAf G2 :|

